X:1153
T:March 6th. Regt.
M:2/4
L:1/16
Q:1/4=72
I: :: ||
N:bar 3 printed |B2g>fe d2c2|
N:each part printed as ending with a crotchet
Z:Jack Campin * www.campin.me.uk * 2009
K:D
d>d| d2D>D  D2f>f|    f2D>D D2A2|      B2    (3g>fe d2`c2 |d2d>d d2e2 |
    Tf4   T^g4   |    a2e>e e2d2|({d}(3cBA) (3(fed) c2`B2 |A2A>A A2  :|
e>e| e2A>A (Aceg)|    f2ed  fedc|      d>d`````A>A  F>FD>D|A2A>A A2d>d|
     d2D>D  D2f>f|{ga}b4    a2g2|   (3(fed) (3(gfe) d2`c2 |d2dd  d2  :|

